icons/aave.svg

<svg width="266" height="139" viewBox="0 0 266 139" fill="#9391F7" xmlns="http://www.w3.org/2000/svg">
<path d="M97.5418 138.533C112.461 138.533 124.556 126.438 124.556 111.518C124.556 96.5987 112.461 84.5039 97.5418 84.5039C82.6221 84.5039 70.5273 96.5987 70.5273 111.518C70.5273 126.438 82.6221 138.533 97.5418 138.533Z" />
<path d="M168.149 138.533C183.069 138.533 195.164 126.438 195.164 111.518C195.164 96.5987 183.069 84.5039 168.149 84.5039C153.23 84.5039 141.135 96.5987 141.135 111.518C141.135 126.438 153.23 138.533 168.149 138.533Z"/>
<path d="M132.8 0C59.4497 0 -0.0191954 60.6017 4.64786e-06 135.335H33.9264C33.9264 79.3281 77.8433 33.92 132.8 33.92C187.757 33.92 231.674 79.3281 231.674 135.335H265.6C265.613 60.6017 206.144 0 132.8 0Z"/>
</svg>

<svg xmlns="http://www.w3.org/2000/svg" fill="#9391F7" viewBox="0 0 266 139">
  <path d="M97.542 138.533c14.919 0 27.014-12.095 27.014-27.015s-12.095-27.014-27.014-27.014c-14.92 0-27.015 12.095-27.015 27.014 0 14.92 12.095 27.015 27.015 27.015"/>
  <path d="M168.149 138.533c14.92 0 27.015-12.095 27.015-27.015s-12.095-27.014-27.015-27.014-27.014 12.095-27.014 27.014c0 14.92 12.095 27.015 27.014 27.015"/>
  <path d="M132.8 0C59.45 0-.02 60.602 0 135.335h33.926c0-56.007 43.917-101.415 98.874-101.415s98.874 45.408 98.874 101.415H265.6C265.613 60.602 206.144 0 132.8 0"/>
</svg>
